X:1
T:James Gibb editions
T:Urbs beata Jerusalem - Dufay
T:#
%%score [ 1 2 3 4 ]
L:1/8
Q:1/4=121
M:6/4
K:F
V:1 treble nm="Soprano" snm="S"
V:2 treble nm="Alto" snm="A"
V:3 treble-8 nm="Tenor" snm="T"
V:4 bass nm="Bass" snm="B"
V:1
"^Urbs beata Jerusalem""^Guillaume Dufay\n(1397-1474)" d4 d4 _e4 | (d4 c2 A2 B4) | c4 d6 (c2 | %3
w: Urbs be- a-|ta * * *|Je- ru- sa\-|
 B2 A2- AG G2 ^F2 E2) | G4 z4 (A2 B2) | c4 A4 B4 | (A2 G4) (G2 ^F2 E2) | G4 z8 | B8 G4 | A4 B4 c4 | %10
w: |lem, dic- *|ta pa- cis|vi\- * si\- * *|o,|quae con-|stru- i- tur|
 d6 (c2 B2 G2) | (A4 G4) z4 | A4 B4 A4 | G4 A4 (G4 | F2 B2 A2 F2- FD E2) | F4 z8 | D4 F8 | %17
w: in cae\- * *|lis *|vi- vis ex|la- pi- di\-||bus,|et an-|
 G4 F4 B4 | (A2 c4) (B2 A3 G) | B8 z4 | d8 c4 | (B4 A4) (B4 | c2 d2 B2 G2 A4 | G6) (G2 ^F2 E2) | %24
w: ge- lis co-|ro\- * na\- * *|ta,|ut spon-|sa\- * ta||co- mi\- * *|
 G12 |] %25
w: te.|
V:2
 G,4 B,4 C4 | z4 (CDEF G4) | z2 G2 B4 (B2 G2 | F3 E/D/ C4 D4) | (B,4 _E4) (C2 F2) | G4 F4 D4 | %6
w: Urbs be- a-|ta * * * *|Je- ru- sa\- *||lem, * dic\- *|ta pa- cis|
 z2 (_E2- EDB,C D4) | (B,3 C D4) G,4 | z4 (G3 F _E2 D2- | D2) (C2 G4) A4 | A4 F2 (G2- GF D2 | %11
w: vi\- * * * * *|si\- * * o,|quae * * *|* con\- * stru-|i- tur in * * *|
 F4) (B,2 C2) D4 | (C2 F4) F2 F4 | D4 z4 (_E4 | D2 _E2 F2 C4) C2 | (A,2 C2 F4 G4) | F6 (D4 C2) | %17
w: * cae\- * lis|vi\- * vis ex|la- pi\-|* * * * di-|bus, * * *|et an\- *|
 (_E2 D4) D4 B,2 | (C2 G2 F3 _E) D4 | G4 F4 B4 | B8 G4 | z2 (D2 F8) | z4 (F2 D2 F4) | %23
w: ge\- * lis co-|ro\- * * * na-|ta, ut spon-|sa- ta|co\- *|mi\- * *|
 (D2 _E2- EDB,C D4- | D12) |] %25
w: te. * * * * * *||
V:3
 d8 g4 | f4 (e2 c2 d4) | (c2 e2 d2 f4) (e2 | d2 c4) (G2 A4) | (G3 A B2 c4) (d2 | %5
w: Urbs be-|a- ta * *|Je\- * * * ru\-|* * sa\- *|lem, * * * dic\-|
 _e3 d) c4 (B2 d2) | (c2 G2 B4) A4 | G4 z2 (G2 B2 c2 | d6 (c2 B4) | A4 d4 e4 | f2 d4) (_e2 d2 B2) | %11
w: * * ta pa\- *|cis * * vi-|si- o, * *|* quae *|con- stru- i-|tur * in * *|
 c4 G4 z2 (A2- | AB c2 d4) (c2 A2) | (B4 A2 c2) (B2 G2) | (A2 B2 c2 A2) G4 | F8 z4 | F6 (G2 A4) | %17
w: cae- lis vi\-|* * * * vis *|ex * * la\- *|pi- * * * di-|bus|et an\- *|
 B4 A4 (B2 d2) | (c2 _e2 d2 B2) c4 | B8 (d2 e2 | f6 (d2 _e4) | d2 B2) (c4 d4) | (_e2 d4 B2 c4 | %23
w: ge- lis co\- *|ro\- * * * na-|ta, ut *|* spon\- *|sa- * ta *|co\- * * *|
 B2 G2) (B4 A4) | G12 |] %25
w: * * mi\- *|te.|
V:4
 G,8 C,4 | (D,E,F,G, A,4) G,4 | (A,2 C2) B,4 (B,,2 C,2 | D,2 F,4) (_E,2 D,4) | %4
w: Urbs be-|a\- * * * * ta|Je\- * ru- sa\- *|* * lem, *|
 z2 (G,4 _E,2 F,2 D,2) | C,4 F,4 G,4 | z2 _E,4 G,2 D,4 | z2 (G,2 B,3 C D4) | (G,6 E,3 F, G,2) | %9
w: dic\- * * *|ta pa- cis|vi- si- o,|quae * * *|con\- * * *|
 (D,2 F,2) (G,2 B,2) A,4 | D,4 z4 G,4 | (F,4 _E,4) (D,4- | F,4 (B,,4 F,4) | G,4 z4 _E,4 | %14
w: stru\- * i\- * tur|in cae-|lis * vi\-|* vis *|ex la-|
 F,2 G,2 F,4) C,4 | (C3 B, A,G, F,4 E,2) | F,4 z4 (D,2 F,2) | (_E,2 G,2) D,4 G,4 | %18
w: pi\- * * di-|bus, * * * * *|* et *|an\- * ge- lis|
 z2 C,2 (F,2 G,2) F,4 | G,4 B,8 | B,4 B,4 C4 | G,4 (F,6 _E,2 | C,2 B,,2 B,4 F,4 | %23
w: co- ro\- * na-|ta, ut|spon- sa- ta|co- mi\- *||
 z2) (_E,2- E,F, G,2 D,4 | G,12) |] %25
w: te. * * * *||

